X: 20831
T: BHLIAN UR.
T: "NEW YEAR'S DAY."
O: Gaelic Strathspey and song.
%R: air, strathspey
B: W. Hamilton "Universal Tune-Book" Vol. 2 Glasgow 1846 p.83 #1
S: http://s3-eu-west-1.amazonaws.com/itma.dl.printmaterial/book_pdfs/hamiltonvol2web.pdf
Z: 2016 John Chambers <jc:trillian.mit.edu>
M: C
L: 1/16
K: C
% - - - - - - - - - - - - - - - - - - - - - - - - -
d2 |\
G3GG3A T_B3cdf3 | ec3f3d ec3f3d |\
G3GG3A _B3cd^f3 | g3e=f3d c4c2 :| ef |\
g3ceg3 f3_Bdf3 | gc3e3c Tg3fec3 |
faf2 ege2 f3_Bd^f3 | ge3=f3d c4 c2ef |\
g3ceg3 f3_Bdf3 | gc'g2 ege2 gc'g2 ege2 |\
faf2 ege2 e_bd2 Bdf2 | geg2 f3d c4 Tc2 |]
% - - - - - - - - - - - - - - - - - - - - - - - - -

%%sep 1 1 500
%%sep 1 1 500

